X: 10803
M: C|
L: 1/8
K: C
uEF |\
|: (ef) |\
g>(fe>d) c>eg2 | (a>g)f>e d>fa2 | (a>g)f>e d>(cB>c) | (3ded (3cBA G2(e>f) |\
g>(fe>d) c>eg2 | (a>g)f>e d>fa2 | (a>g)g>f (f>e)e>d | (c>a)g>B c2 :|


